icons/square/48/tintii.svg

<svg width="48" height="48" version="1.1" viewBox="0 0 48 48.000001" xmlns="http://www.w3.org/2000/svg" xmlns:xlink="http://www.w3.org/1999/xlink">
 <defs>
  <linearGradient id="linearGradient4501" x1="-47" x2="-1" y1="2.8779e-15" y2="6.1232e-17" gradientUnits="userSpaceOnUse">
   <stop style="stop-color:#e4e4e4" offset="0"/>
   <stop style="stop-color:#eee" offset="1"/>
  </linearGradient>
 </defs>
 <rect transform="rotate(-90)" x="-47" y="1" width="46" height="46" rx="4" style="fill:url(#linearGradient4501)"/>
 <path d="m5 2c-2.216 0-4 1.784-4 4v11.527 25.473c0 2.216 1.784 4 4 4h38c2.216 0 4-1.784 4-4v-25.473-11.527c0-2.216-1.784-4-4-4h-19-19zm19 11a12 12 0 0 1 11.398 8.2969 12 12 0 0 1 0.60156 3.7031 12 12 0 0 1 -4.9551 9.6973 12 12 0 0 1 -7.0449 2.3027 12 12 0 0 1 -7.0469 -2.3027 12 12 0 0 1 -4.9531 -9.6973 12 12 0 0 1 0.59375 -3.7051 12 12 0 0 1 11.406 -8.2949z" style="fill-rule:evenodd;opacity:.1"/>
 <path d="m5 1c-2.216 0-4 1.784-4 4v11.527c2 2.4727 9 5.4727 11.594 3.7676 1.6047-4.9433 6.2091-8.2917 11.406-8.2949 2-2 2-9 0-11z" style="fill-rule:evenodd;fill:#ee7f52"/>
 <path d="m24 1v11c5.1948 0.0069 9.7954 3.3556 11.398 8.2969 2.6016 1.7031 9.6016-0.29688 11.602-3.7695v-11.527c0-2.216-1.784-4-4-4z" style="fill-rule:evenodd;fill:#858585"/>
 <path d="m47 16.527-11.602 3.7695c0.39343 1.1952 0.59643 2.4448 0.60156 3.7031-0.0055 3.8389-1.8473 7.4435-4.9551 9.6973-1.0449 2.3027 5.9551 12.303 9.666 13.303h2.2891c2.216 0 4-1.784 4-4z" style="fill-rule:evenodd;fill:#9b9b9b"/>
 <path d="m16.953 33.697c-2.9531 0.30273-11.953 11.303-9.6641 13.303h33.422l-9.666-13.303c-2.0465 1.4917-4.5125 2.2978-7.0449 2.3027-2.5331-0.0046-4.9998-0.81062-7.0469-2.3027z" style="fill-rule:evenodd;fill:#b3b3b3"/>
 <path d="m1 16.527v26.473c0 2.216 1.784 4 4 4h2.2891l9.6641-13.303a12 12 0 0 1 -4.9531 -9.6973 12 12 0 0 1 0.59375 -3.7051l-11.594-3.7676z" style="fill-rule:evenodd;fill:#d2d2d2"/>
 <g transform="translate(0 3.949e-5)">
  <path d="m1 43v0.25c0 2.216 1.784 4 4 4h38c2.216 0 4-1.784 4-4v-0.25c0 2.216-1.784 4-4 4h-38c-2.216 0-4-1.784-4-4zm0 0.5v0.5c0 2.216 1.784 4 4 4h38c2.216 0 4-1.784 4-4v-0.5c0 2.216-1.784 4-4 4h-38c-2.216 0-4-1.784-4-4z" style="opacity:.02"/>
  <path d="m1 43.25v0.25c0 2.216 1.784 4 4 4h38c2.216 0 4-1.784 4-4v-0.25c0 2.216-1.784 4-4 4h-38c-2.216 0-4-1.784-4-4z" style="opacity:.05"/>
  <path d="m1 43v0.25c0 2.216 1.784 4 4 4h38c2.216 0 4-1.784 4-4v-0.25c0 2.216-1.784 4-4 4h-38c-2.216 0-4-1.784-4-4z" style="opacity:.1"/>
 </g>
 <g transform="translate(0 3.949e-5)">
  <g transform="translate(0 -1004.4)">
   <path d="m1 1043.4v4c0 2.216 1.784 4 4 4h38c2.216 0 4-1.784 4-4v-4c0 2.216-1.784 4-4 4h-38c-2.216 0-4-1.784-4-4z" style="opacity:.1"/>
  </g>
 </g>
</svg>

<svg width="48" height="48" viewBox="0 0 48 48.000001" xmlns="http://www.w3.org/2000/svg">
  <defs>
    <linearGradient id="a" x1="-47" x2="-1" gradientUnits="userSpaceOnUse">
      <stop offset="0" stop-color="#e4e4e4"/>
      <stop offset="1" stop-color="#eee"/>
    </linearGradient>
  </defs>
  <rect transform="rotate(-90)" x="-47" y="1" width="46" height="46" rx="4" fill="url(#a)"/>
  <path d="M5 2C2.784 2 1 3.784 1 6v37c0 2.216 1.784 4 4 4h38c2.216 0 4-1.784 4-4V6c0-2.216-1.784-4-4-4H5zm19 11a12 12 0 0 1 11.398 8.297A12 12 0 0 1 36 25a12 12 0 0 1-4.956 9.697A12 12 0 0 1 24 37a12 12 0 0 1-7.047-2.303A12 12 0 0 1 12 25a12 12 0 0 1 .593-3.705A12 12 0 0 1 24 13z" fill-rule="evenodd" opacity=".1"/>
  <path d="M5 1C2.784 1 1 2.784 1 5v11.527C3 19 10 22 12.594 20.295A12 12 0 0 1 24 12c2-2 2-9 0-11z" fill-rule="evenodd" fill="#ee7f52"/>
  <path d="M24 1v11a12 12 0 0 1 11.398 8.297C38 22 45 20 47 16.527V5c0-2.216-1.784-4-4-4z" fill-rule="evenodd" fill="#858585"/>
  <path d="M47 16.527l-11.602 3.77A12 12 0 0 1 36 24a12 12 0 0 1-4.956 9.697C30 36 37 46 40.71 47H43c2.216 0 4-1.784 4-4z" fill-rule="evenodd" fill="#9b9b9b"/>
  <path d="M16.953 33.697C14 34 5 45 7.289 47H40.71l-9.666-13.303A12 12 0 0 1 24 36a12 12 0 0 1-7.047-2.303z" fill-rule="evenodd" fill="#b3b3b3"/>
  <path d="M1 16.527V43c0 2.216 1.784 4 4 4h2.29l9.663-13.303A12 12 0 0 1 12 24a12 12 0 0 1 .594-3.705L1 16.527z" fill-rule="evenodd" fill="#d2d2d2"/>
  <path d="M1 43v.25c0 2.216 1.784 4 4 4h38c2.216 0 4-1.784 4-4V43c0 2.216-1.784 4-4 4H5c-2.216 0-4-1.784-4-4zm0 .5v.5c0 2.216 1.784 4 4 4h38c2.216 0 4-1.784 4-4v-.5c0 2.216-1.784 4-4 4H5c-2.216 0-4-1.784-4-4z" opacity=".02"/>
  <path d="M1 43.25v.25c0 2.216 1.784 4 4 4h38c2.216 0 4-1.784 4-4v-.25c0 2.216-1.784 4-4 4H5c-2.216 0-4-1.784-4-4z" opacity=".05"/>
  <path d="M1 43v.25c0 2.216 1.784 4 4 4h38c2.216 0 4-1.784 4-4V43c0 2.216-1.784 4-4 4H5c-2.216 0-4-1.784-4-4z" opacity=".1"/>
  <g>
    <path d="M1 39v4c0 2.216 1.784 4 4 4h38c2.216 0 4-1.784 4-4v-4c0 2.216-1.784 4-4 4H5c-2.216 0-4-1.784-4-4z" opacity=".1"/>
  </g>
</svg>
